X:23
T:23. The Fairy Prince
M:9/8
L:1/8
Q:3/8=120
Z:Peter Dunk, VMP, 2011
K:Bb
B3 dcB fed | cde GcB AGF | B3 dcB fed | ced cBA B2 z :|!
|:f2 (=e/f/) f2 (e/f/) dcB | f2 (=e/f/) fef dcB | f2 (=e/f/) f2 (e/f/) dcB | GBA GF=E F2 z :|!
|:b2 B b2 B b2 B | gfe dcB AGF | bbb bbb bag | fed cBA B2 z :|!

